-----BEGIN PGP PUBLIC KEY BLOCK-----

mQINBGocZkQBEACqiz80R0SAYcW6VvVx1ZliX9Dh9F6cVN7VL5OzM5r+7z9tgAf1
PKFdtggDf7dpFXKxeViDpeCVbbRH0yDBjV3Q7+8HgnHIX9tRFbH7s7Fzoq68bWab
fyw0MEuQadVvhbGCu2n2gumB/1JKm2aIlY5/EkG6Ml26WYp7o9QXD4DHmH7zza/g
gPU06SpIy2uz7ZtvaPG0iIQ6uzBBQBYYz8C2+HESFLG+ceLkjv2gx8vUtpI719JO
94rtDhGoe+j2XjcQiSoFwgmv7e1UByebxmVFNoJfcAN7gy/RWXA4bp0PgGy/lTDv
oPI0Ae+Y6xprqI5JIYiUKCR7EW4snIy+rBlU+Pq6BneFSIN5TT3dtDcUZ6uM+wLg
SZ4xbywnUW4HyntyA2A8JrvKroS+lqXutSa6OpG0SyiVKfMLVi4vY/jGm0Jokpkn
GgBWrGPH6NqPOp31yC5J4xzVgZloSq3K5sIkjb6+LmY5BTB/kPYKUh/Rp0fhYPDG
cIV4D1i/EKbMUtF6Opfhe6EtcR4kuYRuCQ2ga6hbbbYEbPXpQc5lCbye/227ez3F
wVhQU7iuDQYk+rLDIecNF1sYl/5OmiR6Yu6fGaVL/W63USGDR8Jbnhm56BSy27eD
iUnYc5ensNtofHPMrwxZD3o3z6Ed6w807rttIHploS7MTTaA1wcAfD62QQARAQAB
tChOYXRoYW5hZWwgQm9uZmltIDxkZXZAbmF0aGFib25maW01OS5jb20+iQJPBBMB
CgA5FiEEBp6nO0sOxpwSmwRjfeC2lQ6wQ4sFAmocZkQDGy8EBQsJCAcCBhUKCQgL
AgQWAgMBAh4BAheAAAoJEH3gtpUOsEOLDzYP/jrlYMwXDmTEHVFaX/NcrNrFm6Z6
BWZvneZEzgpEVUOIzcRhlo+X19Jut5FBkvUA9CyPZlFJA9fmivCq0NlUYSb//rSO
blwGqgDzMDabuC8Liu2tejxstiLZ/NpXq04VW3eEMTYZPdLcb+suNXHjDM5nxeeG
KOLbr8leYQf3CkleD0dXU+FvLOc+ZgS/hphoZO0sr0/nIxa+XcnNbGXXRrDGEUS3
7tMIMMvaxLENtNAfaB5eTZS+aJg+7yIb6HX/XOp87JQSHTrx/VaQ8dIB+7+mCuZn
8RqtbDqRDuwE1iFZxp/ED+uDzPaZtPMWvhC6dVjxHr4F9v6+qeHGD7Mxgx5NX+f0
w+kDfFeLZYrVy2i1f6YgcolkgYal5d3yW1eG33GNSjFEJzD38gNajV83dWwU9Oeq
yLU7nK/mVn7K0mPYcEoWnDKr1s9enF8ijF0vDvarQ/w310oEX7HzURaAX1O/AWwg
3oLx+8GjRxb7LsXrD2MAWzWZlOzWA9y6jUWT+OF3wQ4A2dBo+kjPiJ/vsO+kNTk5
/mnLMKk1kMWGj6Riveb7ir0rnKIDg6BcWece/Y6pREdPrQ4CGG/+B5/Bzji0kXdm
VK4GyuE0tHniSCBcp11u8n88yDUNePt+KAbIU19HsYGhqncqfjSVla39Oc6d+/BP
7KE8P0ZcnyTzIe8buQINBGocZkQBEADmp64xY/MRZcagDdHEJQQgrtoGlRq8iOHG
Z/AHTOspGZhhevggLWJkDSgTHoaHSYoUQHqq0YFpZTDtfR76A8kQYbS4ACavNZ4e
EGmJJIfFdbGKQI1bp8JIKcgvTcM/l7SyhzNn92h4ghQ9Q7Tt7vsQuJ4iJgZL8APU
lUA05fxwr/kieNdSjnfU07Cl0S5gPHFVZwie8R1m+A/RogIlz/5ry2BCDDGuUjnU
+ykyXRnp1PRXGiONo8LLEU0TiOl/OtuwQSE6jfTQQ3aKoG2+QiPzVM0lnHXULd0k
eWf/AnGIRYC79J4XvPQPtvyKq5KdrfpsOnrU35lroIiVl6A0TeJJ8urp9YxaLFZl
6x/HPZnfkNLP/vHyzCty/GaNbWISY/C/84PzYihbNmlB9y2fKfIbaElgNb+ihwsd
C6QBwh/v/3iVAh9ejJEBIWVeidHdiKflwS5tHlP0F/4vQW2XYvhrX5YC8F8YVaRV
Jic2+bqg3ODM+i2pG0ctuTPRSIy4NOFU3xIRRBuIM3680qWU9PVi5vqXlnMXAXr0
YuJiyblFA9XPBPC66kYdpfFOZRSrEk1oceiYZp7fmb57JWNZaZob+nnMbiWb3WPw
LgBKyS+p1+I22bkg9rVlHHt4XR3eNtpCEBb+gO53Qealda5x7fTpxq5KzGTotETa
gHf/bc5w0QARAQABiQRsBBgBCgAgFiEEBp6nO0sOxpwSmwRjfeC2lQ6wQ4sFAmoc
ZkQCGy4CQAkQfeC2lQ6wQ4vBdCAEGQEKAB0WIQSTMODJyLUtdHlxe7RnSlKbcEls
FgUCahxmRAAKCRBnSlKbcElsFgk7D/97vaGdOA6aR2ZGnrWp8mFhvwME9B1pXrJW
Ks2ZyIrLqzNFRBtbVddsiVuAOOCIz9RqGzR/6G6dcjoGo14cC/vvQKQP+Z67c9uR
VWq7lU04IZs0T4LEwAzgQdb274Vukt0/zhiozFp+/ZeRqyxyeKZH6dJwzQZk+Izo
hSAAJwp2st5NZHrxqXgJWsqoTrHVKIiSpRBjb57SaFGWdgVARjW6lLQ2CA0Z7+qK
8tawIEipoKkg5IcjDoIkQxH36FA4p4Vi4TJJGQQjslAtxYNFHrt5ilJGMdrDLnGZ
1+73A6+uONJwXCLVU/8deA5jsm3meXvD7qXFy7AXxvs+D28ub7YGQgC296KKMn9S
3F6xE9wYFDksOfez7yPdmxkEepTNJIrQdYWL2BvmYnevhN+eDV9Xpmw07GsxqnhB
e93uQt/HOv7a8WbtrspUfOnAhNZx2eQjP+2EkBPFJitZ5RACnVjCeB9dJGPbsnVc
SNNXGKIAhFkJIZRxCmxhrzcevhN9wMXMxSAou1MVYjyvTUCmOmaBI+trHxDvMrHS
dSfVZ319hTIMn5HBX3iIPEeQFIqOpGUPp42QPrOgTnzf4vnj+94QYvTcoZ1Ueyj4
f8kmwL7uivcQnUZ3JKmSflLiQfcFPmzMlWz0iIFoHKnkngJ28BBr4kDoiW+gJ/Rv
udnSS01o5J3kD/oDKI/grS8lZ+L+wJ8LxpMNFU6UwpzBrRDFyUZOhJXVX/lKWpBZ
82fRRTyR2Dg0Z8w/5AGFwb7dqkqZpyS6kku6mDgNELCRKT33YG7vexne+k3I6Z6o
zL75ToblYDnYKHhe7T0uxeU4Ijg9DNNSxCz4eB9/rFHxJW/9/Ge+kMLjTjGGCKhw
tsiWQ+h0nSj9OHl5tD3A1DHBPfDKvxMc8+mQEQGXSdwd4/2pFrSa2EgDxA7D2Ql0
ztNIYog3ZE+bTA3jAkCKWEEdmuleUzCmMX0ThMfFzB//C3lKw6zonhrmGjWDlC6j
h2volHQGIaa1VZrf+6R3StpLZAAeYm91bbvHQLXpwzV667qXi24Csl0CXut/o6OD
gte9b7T93x37+CgGxHx2eYqNkMvfxY1WyM5sAD4DTFWaIsTtLr7yM+R1wNhurRVr
LewOw7MauAdCApCkaOSCda+Pl5jzRJ/VHj3QsTDs2Rk1A1RtTjAgrBcTohS0dRS/
Y3PVsyDQj1j2ZwzLCxxJSmEi5p2XX3bkbW7zM2Eyi5JCUI5nD3qAaASc8UdMWIF7
k9QRffaMYqB/1IJ+nwAf7F794eerre6iyAAgXIJbYsGiRUdbAQGtjjmicnQhO+7W
zlP1WgQPXsPkcp+UGE7J5+XBKELIPGbXrgzaRxohykdzMngoz8DPeyo0jg==
=6HN/
-----END PGP PUBLIC KEY BLOCK-----
